X:039
T:The Princes Royal
T:The Princess Royal
B:Gow's 2nd Repository, early 1800s
N:transposed from Gm
M:4/4
L:1/8
K:Dm
DE|F2 EF D2 AG|FGEF D3 A|B3 A G2 cB|ABGA F4|
F2 dF E2 cE|DEFD A,2 AG|FEFD A,D^CE|D2 D2 D2:|
A2|d^cde d^cde|f2 F2 F2 de|fedc BAGF|EFGE C4|
F2 EF G2 FG|A2 A2 d4|c2 F2 B4|A2 D2 G4|
FGFE DEFD|^CDEC A,2 AG|FEFD A,D^CE|D2 D2 D2:|
<end>
<start>
